icons/eraser-line.svg

<svg viewBox="0 0 24 24" fill="currentColor" xmlns="http://www.w3.org/2000/svg"><path d="M8.58564 8.85449L3.63589 13.8042L8.83021 18.9985L9.99985 18.9978V18.9966H11.1714L14.9496 15.2184L8.58564 8.85449ZM9.99985 7.44027L16.3638 13.8042L19.1922 10.9758L12.8283 4.61185L9.99985 7.44027ZM13.9999 18.9966H20.9999V20.9966H11.9999L8.00229 20.9991L1.51457 14.5113C1.12405 14.1208 1.12405 13.4877 1.51457 13.0971L12.1212 2.49053C12.5117 2.1 13.1449 2.1 13.5354 2.49053L21.3136 10.2687C21.7041 10.6592 21.7041 11.2924 21.3136 11.6829L13.9999 18.9966Z"/></svg>

<svg xmlns="http://www.w3.org/2000/svg" viewBox="0 0 24 24">
    <g>
        <path fill="none" d="M0 0h24v24H0z"/>
        <path d="M8.586 8.858l-4.95 4.95 5.194 5.194H10V19h1.172l3.778-3.778-6.364-6.364zM10 7.444l6.364 6.364 2.828-2.829-6.364-6.364L10 7.444zM14 19h7v2h-9l-3.998.002-6.487-6.487a1 1 0 0 1 0-1.414L12.12 2.494a1 1 0 0 1 1.415 0l7.778 7.778a1 1 0 0 1 0 1.414L14 19z"/>
    </g>
</svg>
